svg/blobs-icons/no-decorations/magnet.svg

<svg xmlns="http://www.w3.org/2000/svg" xmlns:xlink="http://www.w3.org/1999/xlink" preserveAspectRatio="xMidYMid" width="217" height="218" viewBox="0 0 217 218"><defs><style>.cls-3{fill:#ededed}.cls-5{fill:#ff3a2f}.cls-6{fill:#020403;opacity:.25}.cls-8{fill:#020403;opacity:.35}</style></defs><g id="group-97svg"><path d="M101.19 54.707S74.099 27.614 74.099 27.614 101.703.009 101.703.009s27.092 27.092 27.092 27.092S101.19 54.707 101.19 54.707z" id="path-1" class="cls-3" fill-rule="evenodd"/><path d="M189.239 142.756s-27.092-27.091-27.092-27.091 27.605-27.606 27.605-27.606 27.091 27.093 27.091 27.093-27.604 27.604-27.604 27.604z" id="path-2" class="cls-3" fill-rule="evenodd"/><path d="M162.147 115.665s-43.511 43.514-43.511 43.514c-16.837 16.833-44.126 16.833-60.96.0-16.832-16.835-16.832-44.124.0-60.961L101.19 54.706S74.098 27.613 74.098 27.613 23.811 77.898 23.811 77.898c-31.789 31.799-31.789 83.353.0 115.145 31.801 31.797 83.352 31.798 115.142.0l50.287-50.285s-27.093-27.093-27.093-27.093z" id="path-3" class="cls-5" fill-rule="evenodd"/><path d="M116.822 15.128S96.401 35.549 96.401 35.549s-22.302-7.935-22.302-7.935S101.19 54.706 101.19 54.706s27.605-27.605 27.605-27.605-11.973-11.973-11.973-11.973z" id="path-4" class="cls-6" fill-rule="evenodd"/><path d="M204.87 103.179s-20.421 20.419-20.421 20.419S162.147 115.665 162.147 115.665s27.092 27.091 27.092 27.091 27.604-27.604 27.604-27.604-11.973-11.973-11.973-11.973z" id="path-5" class="cls-6" fill-rule="evenodd"/><path d="M52.887 79.061c-13.61 13.614-16.204 34.058-7.804 50.287C44.915 118.1 49.095 106.802 57.676 98.218L101.19 54.706S89.217 42.732 89.217 42.732s-36.33 36.329-36.33 36.329z" id="path-6" class="cls-8" fill-rule="evenodd"/><path d="M177.267 130.785s-43.104 43.1-43.104 43.1c-31.789 31.799-83.34 31.799-115.141.0C10.726 165.59 4.65 155.932.684 145.647c2.17 17.326 9.827 34.094 23.127 47.396 31.801 31.797 83.352 31.798 115.142.0l50.287-50.285s-11.973-11.973-11.973-11.973z" id="path-7" class="cls-8" fill-rule="evenodd"/></g></svg>

<svg xmlns="http://www.w3.org/2000/svg" xmlns:xlink="http://www.w3.org/1999/xlink" preserveAspectRatio="xMidYMid" width="217" height="218" viewBox="0 0 217 218">
  <defs>
    <style>

      .cls-3 {
        fill: #ededed;
      }

      .cls-5 {
        fill: #ff3a2f;
      }

      .cls-6 {
        fill: #020403;
        opacity: 0.25;
      }

      .cls-8 {
        fill: #020403;
        opacity: 0.35;
      }
    </style>
  </defs>
  <g id="group-97svg">
    <path d="M101.190,54.707 C101.190,54.707 74.099,27.614 74.099,27.614 C74.099,27.614 101.703,0.009 101.703,0.009 C101.703,0.009 128.795,27.101 128.795,27.101 C128.795,27.101 101.190,54.707 101.190,54.707 Z" id="path-1" class="cls-3" fill-rule="evenodd"/>
    <path d="M189.239,142.756 C189.239,142.756 162.147,115.665 162.147,115.665 C162.147,115.665 189.752,88.059 189.752,88.059 C189.752,88.059 216.843,115.152 216.843,115.152 C216.843,115.152 189.239,142.756 189.239,142.756 Z" id="path-2" class="cls-3" fill-rule="evenodd"/>
    <path d="M162.147,115.665 C162.147,115.665 118.636,159.179 118.636,159.179 C101.799,176.012 74.510,176.012 57.676,159.179 C40.844,142.344 40.844,115.055 57.676,98.218 C57.676,98.218 101.190,54.706 101.190,54.706 C101.190,54.706 74.098,27.613 74.098,27.613 C74.098,27.613 23.811,77.898 23.811,77.898 C-7.978,109.697 -7.978,161.251 23.811,193.043 C55.612,224.840 107.163,224.841 138.953,193.043 C138.953,193.043 189.240,142.758 189.240,142.758 C189.240,142.758 162.147,115.665 162.147,115.665 Z" id="path-3" class="cls-5" fill-rule="evenodd"/>
    <path d="M116.822,15.128 C116.822,15.128 96.401,35.549 96.401,35.549 C96.401,35.549 74.099,27.614 74.099,27.614 C74.099,27.614 101.190,54.706 101.190,54.706 C101.190,54.706 128.795,27.101 128.795,27.101 C128.795,27.101 116.822,15.128 116.822,15.128 Z" id="path-4" class="cls-6" fill-rule="evenodd"/>
    <path d="M204.870,103.179 C204.870,103.179 184.449,123.598 184.449,123.598 C184.449,123.598 162.147,115.665 162.147,115.665 C162.147,115.665 189.239,142.756 189.239,142.756 C189.239,142.756 216.843,115.152 216.843,115.152 C216.843,115.152 204.870,103.179 204.870,103.179 Z" id="path-5" class="cls-6" fill-rule="evenodd"/>
    <path d="M52.887,79.061 C39.277,92.675 36.683,113.119 45.083,129.348 C44.915,118.100 49.095,106.802 57.676,98.218 C57.676,98.218 101.190,54.706 101.190,54.706 C101.190,54.706 89.217,42.732 89.217,42.732 C89.217,42.732 52.887,79.061 52.887,79.061 Z" id="path-6" class="cls-8" fill-rule="evenodd"/>
    <path d="M177.267,130.785 C177.267,130.785 134.163,173.885 134.163,173.885 C102.374,205.684 50.823,205.684 19.022,173.885 C10.726,165.590 4.650,155.932 0.684,145.647 C2.854,162.973 10.511,179.741 23.811,193.043 C55.612,224.840 107.163,224.841 138.953,193.043 C138.953,193.043 189.240,142.758 189.240,142.758 C189.240,142.758 177.267,130.785 177.267,130.785 Z" id="path-7" class="cls-8" fill-rule="evenodd"/>
  </g>
</svg>
